X:5790
T:Gan Ainm
R:Reel
M:4/4
S:Orla McGrory, Belfast (fiddle)
H:From Mairead Mooney
Z:Bernie Stocks
K:D %i.e. Em
EFGA B2ed | B2Ac BcdB | AF~F2 DF~F2 | AFBF AFED | EFGA B2ed | B2Ac Bcde |
fedB AF~F2 | BFAF E4 :: Beed e2de | fedc Bcde | fede ~f3g |
fedc BAFA | Beed e2de | fedc Bcde | fedB AF~F2 | BFAF E4 :||


